X: 35837
T: Saltspring
R: barndance
M: 4/4
K: Amajor
|:"A"e4 e2ce|"A"f2e4 ce|"A"f2f2 ecBA|"A"c4 cBAc|
"Bm"B4 B4|"Bm"c2B4 B2|"Bm"c2B2A2G2|"F#m"F4 F2A2|
"Bm"B4 B4|"Bm"c2B4 B2|"Bm"c2B2A2G2|"D"F4 F2G2|
"D"A4 A3c|"D"B2 A4 B2|"A"c2B2A2G2|1 "A"A4ABcd:|2 "A"A8||
|:"D/F#"F4"E/G#"G4|"A"A4c4|"D/F#" F4"E/G#"G4|"A"A6E2|
"D/F#" F4"E/G#"G4|"A"A4c4|"E"B8|1 "E" B6E2:|2 "E" B4 ABcd||

